svg/phone_hangup_outline.svg

<svg xmlns="http://www.w3.org/2000/svg" viewBox="0 0 24 24"><path d="M23.71 11.67a17 17 0 0 0-23.42 0 1 1 0 0 0-.29.71 1 1 0 0 0 .29.7l2.48 2.48a1 1 0 0 0 .73.29 1 1 0 0 0 .68-.28 11.5 11.5 0 0 1 2.66-1.85 1 1 0 0 0 .56-.9v-3.1A14.9 14.9 0 0 1 12 9a14.5 14.5 0 0 1 4.59.73v3.1a1 1 0 0 0 .56.9 11.3 11.3 0 0 1 2.67 1.85 1 1 0 0 0 .68.28 1 1 0 0 0 .73-.29l2.48-2.48a1 1 0 0 0 0-1.42m-18.31.55a13.7 13.7 0 0 0-1.87 1.28l-1.07-1.08A15.5 15.5 0 0 1 5.4 10.5m15.1 3a14 14 0 0 0-1.9-1.27v-1.7a14.3 14.3 0 0 1 2.95 1.9Z"/></svg>

<?xml version="1.0" encoding="UTF-8"?><!DOCTYPE svg PUBLIC "-//W3C//DTD SVG 1.1//EN" "http://www.w3.org/Graphics/SVG/1.1/DTD/svg11.dtd"><svg xmlns="http://www.w3.org/2000/svg" xmlns:xlink="http://www.w3.org/1999/xlink" version="1.1" id="mdi-phone-hangup-outline" width="24" height="24" viewBox="0 0 24 24"><path d="M23.71 11.67A17 17 0 0 0 .29 11.67A1 1 0 0 0 0 12.38A1 1 0 0 0 .29 13.08L2.77 15.56A1 1 0 0 0 3.5 15.85A1 1 0 0 0 4.18 15.57A11.5 11.5 0 0 1 6.84 13.72A1 1 0 0 0 7.4 12.82V9.72A14.91 14.91 0 0 1 12 9A14.5 14.5 0 0 1 16.59 9.73V12.83A1 1 0 0 0 17.15 13.73A11.27 11.27 0 0 1 19.82 15.58A1 1 0 0 0 20.5 15.86A1 1 0 0 0 21.23 15.57L23.71 13.09A1 1 0 0 0 23.71 11.67M5.4 12.22A13.68 13.68 0 0 0 3.53 13.5L2.46 12.42A15.54 15.54 0 0 1 5.4 10.5M20.5 13.5A13.75 13.75 0 0 0 18.6 12.23V10.53A14.26 14.26 0 0 1 21.55 12.43Z" /></svg>
